mimes/24/x-office-spreadsheet-template.svg

<?xml version="1.0" encoding="UTF-8" standalone="no"?>
<svg
   xmlns:dc="http://purl.org/dc/elements/1.1/"
   xmlns:cc="http://creativecommons.org/ns#"
   xmlns:rdf="http://www.w3.org/1999/02/22-rdf-syntax-ns#"
   xmlns:svg="http://www.w3.org/2000/svg"
   xmlns="http://www.w3.org/2000/svg"
   xmlns:xlink="http://www.w3.org/1999/xlink"
   version="1.0"
   width="24"
   height="24"
   id="svg2794">
  <metadata
     id="metadata103393">
    <rdf:RDF>
      <cc:Work
         rdf:about="">
        <dc:format>image/svg+xml</dc:format>
        <dc:type
           rdf:resource="http://purl.org/dc/dcmitype/StillImage" />
        <dc:title />
      </cc:Work>
    </rdf:RDF>
  </metadata>
  <defs
     id="defs2796">
    <linearGradient
       id="linearGradient5048">
      <stop
         id="stop5050"
         style="stop-color:#000000;stop-opacity:0"
         offset="0" />
      <stop
         id="stop5056"
         style="stop-color:#000000;stop-opacity:1"
         offset="0.5" />
      <stop
         id="stop5052"
         style="stop-color:#000000;stop-opacity:0"
         offset="1" />
    </linearGradient>
    <linearGradient
       id="linearGradient5060">
      <stop
         id="stop5062"
         style="stop-color:#000000;stop-opacity:1"
         offset="0" />
      <stop
         id="stop5064"
         style="stop-color:#000000;stop-opacity:0"
         offset="1" />
    </linearGradient>
    <linearGradient
       id="linearGradient3104">
      <stop
         id="stop3106"
         style="stop-color:#aaaaaa;stop-opacity:1"
         offset="0" />
      <stop
         id="stop3108"
         style="stop-color:#c8c8c8;stop-opacity:1"
         offset="1" />
    </linearGradient>
    <linearGradient
       id="linearGradient3600">
      <stop
         id="stop3602"
         style="stop-color:#f4f4f4;stop-opacity:1"
         offset="0" />
      <stop
         id="stop3604"
         style="stop-color:#dbdbdb;stop-opacity:1"
         offset="1" />
    </linearGradient>
    <linearGradient
       id="linearGradient3211">
      <stop
         id="stop3213"
         style="stop-color:#ffffff;stop-opacity:1"
         offset="0" />
      <stop
         id="stop3215"
         style="stop-color:#ffffff;stop-opacity:0"
         offset="1" />
    </linearGradient>
    <linearGradient
       x1="24"
       y1="1.9999999"
       x2="24"
       y2="46.01725"
       id="linearGradient3063"
       xlink:href="#linearGradient3211"
       gradientUnits="userSpaceOnUse"
       gradientTransform="matrix(0.4545444,0,0,0.4651153,1.0909339,0.33722927)" />
    <linearGradient
       x1="25.132275"
       y1="0.98520643"
       x2="25.132275"
       y2="47.013336"
       id="linearGradient3069"
       xlink:href="#linearGradient3600"
       gradientUnits="userSpaceOnUse"
       gradientTransform="matrix(0.4857154,0,0,0.4780255,0.3428305,-0.7059501)" />
    <linearGradient
       x1="-51.786404"
       y1="50.786446"
       x2="-51.786404"
       y2="2.9062471"
       id="linearGradient3071"
       xlink:href="#linearGradient3104"
       gradientUnits="userSpaceOnUse"
       gradientTransform="matrix(0.3922135,0,0,0.4473607,29.199293,-1.2386997)" />
    <radialGradient
       cx="605.71429"
       cy="486.64789"
       r="117.14286"
       fx="605.71429"
       fy="486.64789"
       id="radialGradient3074"
       xlink:href="#linearGradient5060"
       gradientUnits="userSpaceOnUse"
       gradientTransform="matrix(0.01204859,0,0,0.00823529,13.238794,18.980568)" />
    <radialGradient
       cx="605.71429"
       cy="486.64789"
       r="117.14286"
       fx="605.71429"
       fy="486.64789"
       id="radialGradient3077"
       xlink:href="#linearGradient5060"
       gradientUnits="userSpaceOnUse"
       gradientTransform="matrix(-0.01204859,0,0,0.00823529,10.761206,18.980568)" />
    <linearGradient
       x1="302.85715"
       y1="366.64789"
       x2="302.85715"
       y2="609.50507"
       id="linearGradient3080"
       xlink:href="#linearGradient5048"
       gradientUnits="userSpaceOnUse"
       gradientTransform="matrix(0.0352071,0,0,0.00823529,-0.724852,18.980551)" />
    <radialGradient
       cx="11.789304"
       cy="15.03535"
       r="12.5"
       fx="11.789304"
       fy="15.03535"
       id="radialGradient3321"
       xlink:href="#linearGradient3242-7-3-8-0-4-58-06-2"
       gradientUnits="userSpaceOnUse"
       gradientTransform="matrix(0,3.6040583,-5.548623,0,89.067907,-43.601673)" />
    <linearGradient
       id="linearGradient3242-7-3-8-0-4-58-06-2">
      <stop
         id="stop3244-5-8-5-6-4-3-8-7"
         style="stop-color:#cdf87e;stop-opacity:1"
         offset="0" />
      <stop
         id="stop3246-9-5-1-5-3-0-7-3"
         style="stop-color:#a2e34f;stop-opacity:1"
         offset="0.26238" />
      <stop
         id="stop3248-7-2-0-7-5-35-9-6"
         style="stop-color:#68b723;stop-opacity:1"
         offset="0.66093999" />
      <stop
         id="stop3250-8-2-8-5-6-40-4-0"
         style="stop-color:#1d7e0d;stop-opacity:1"
         offset="1" />
    </linearGradient>
    <linearGradient
       x1="302.85715"
       y1="366.64789"
       x2="302.85715"
       y2="609.50507"
       id="linearGradient3205"
       xlink:href="#linearGradient5048-7"
       gradientUnits="userSpaceOnUse"
       gradientTransform="matrix(0.04576928,0,0,0.00823529,-0.5423243,25.980548)" />
    <radialGradient
       cx="605.71429"
       cy="486.64789"
       r="117.14286"
       fx="605.71429"
       fy="486.64789"
       id="radialGradient3202"
       xlink:href="#linearGradient5060-4"
       gradientUnits="userSpaceOnUse"
       gradientTransform="matrix(-0.01566318,0,0,0.00823529,14.389566,25.980565)" />
    <radialGradient
       cx="605.71429"
       cy="486.64789"
       r="117.14286"
       fx="605.71429"
       fy="486.64789"
       id="radialGradient3199"
       xlink:href="#linearGradient5060-4"
       gradientUnits="userSpaceOnUse"
       gradientTransform="matrix(0.01566318,0,0,0.00823529,17.610433,25.980565)" />
    <linearGradient
       x1="-51.786404"
       y1="50.786446"
       x2="-51.786404"
       y2="2.9062471"
       id="linearGradient3196"
       xlink:href="#linearGradient3104-5"
       gradientUnits="userSpaceOnUse"
       gradientTransform="matrix(0.53064102,0,0,0.58970216,39.269585,-1.7919079)" />
    <linearGradient
       x1="25.132275"
       y1="0.98520643"
       x2="25.132275"
       y2="47.013336"
       id="linearGradient3194"
       xlink:href="#linearGradient3600-4"
       gradientUnits="userSpaceOnUse"
       gradientTransform="matrix(0.65714319,0,0,0.63012397,0.228556,-1.0896478)" />
    <linearGradient
       x1="23.99999"
       y1="5.5641499"
       x2="23.99999"
       y2="43"
       id="linearGradient3191"
       xlink:href="#linearGradient3977"
       gradientUnits="userSpaceOnUse"
       gradientTransform="matrix(0.56756757,0,0,0.72972971,2.378382,-2.5135063)" />
    <linearGradient
       id="linearGradient5048-7">
      <stop
         id="stop5050-4"
         style="stop-color:#000000;stop-opacity:0"
         offset="0" />
      <stop
         id="stop5056-1"
         style="stop-color:#000000;stop-opacity:1"
         offset="0.5" />
      <stop
         id="stop5052-5"
         style="stop-color:#000000;stop-opacity:0"
         offset="1" />
    </linearGradient>
    <linearGradient
       id="linearGradient5060-4">
      <stop
         id="stop5062-5"
         style="stop-color:#000000;stop-opacity:1"
         offset="0" />
      <stop
         id="stop5064-6"
         style="stop-color:#000000;stop-opacity:0"
         offset="1" />
    </linearGradient>
    <linearGradient
       id="linearGradient3104-5">
      <stop
         id="stop3106-6"
         style="stop-color:#a0a0a0;stop-opacity:1"
         offset="0" />
      <stop
         id="stop3108-9"
         style="stop-color:#bebebe;stop-opacity:1"
         offset="1" />
    </linearGradient>
    <linearGradient
       id="linearGradient3600-4">
      <stop
         id="stop3602-7"
         style="stop-color:#f4f4f4;stop-opacity:1"
         offset="0" />
      <stop
         id="stop3604-6"
         style="stop-color:#dbdbdb;stop-opacity:1"
         offset="1" />
    </linearGradient>
    <linearGradient
       id="linearGradient3977">
      <stop
         id="stop3979"
         style="stop-color:#ffffff;stop-opacity:1"
         offset="0" />
      <stop
         id="stop3981"
         style="stop-color:#ffffff;stop-opacity:0.23529412"
         offset="0.03626217" />
      <stop
         id="stop3983"
         style="stop-color:#ffffff;stop-opacity:0.15686275"
         offset="0.95056331" />
      <stop
         id="stop3985"
         style="stop-color:#ffffff;stop-opacity:0.39215687"
         offset="1" />
    </linearGradient>
    <radialGradient
       cx="11.789304"
       cy="15.03535"
       r="12.5"
       fx="11.789304"
       fy="15.03535"
       id="radialGradient3149"
       xlink:href="#linearGradient3242-7-3-8-0-4-58-06-2"
       gradientUnits="userSpaceOnUse"
       gradientTransform="matrix(0,2.9100034,-4.1330688,0,66.363061,-36.249087)" />
    <linearGradient
       x1="23.99999"
       y1="5.5641499"
       x2="23.99999"
       y2="43"
       id="linearGradient3152"
       xlink:href="#linearGradient3977"
       gradientUnits="userSpaceOnUse"
       gradientTransform="matrix(0.56756757,0,0,0.72972971,-28.406778,-4.8605902)" />
    <linearGradient
       x1="25.132275"
       y1="0.98520643"
       x2="25.132275"
       y2="47.013336"
       id="linearGradient3155"
       xlink:href="#linearGradient3600-4"
       gradientUnits="userSpaceOnUse"
       gradientTransform="matrix(0.65714319,0,0,0.63012397,-30.556604,-3.4367317)" />
    <linearGradient
       x1="-51.786404"
       y1="50.786446"
       x2="-51.786404"
       y2="2.9062471"
       id="linearGradient3157"
       xlink:href="#linearGradient3104-5"
       gradientUnits="userSpaceOnUse"
       gradientTransform="matrix(0.53064102,0,0,0.58970216,8.484425,-4.1389918)" />
    <radialGradient
       cx="605.71429"
       cy="486.64789"
       r="117.14286"
       fx="605.71429"
       fy="486.64789"
       id="radialGradient3160"
       xlink:href="#linearGradient5060-4"
       gradientUnits="userSpaceOnUse"
       gradientTransform="matrix(0.01566318,0,0,0.00823529,-13.174727,23.633481)" />
    <radialGradient
       cx="605.71429"
       cy="486.64789"
       r="117.14286"
       fx="605.71429"
       fy="486.64789"
       id="radialGradient3163"
       xlink:href="#linearGradient5060-4"
       gradientUnits="userSpaceOnUse"
       gradientTransform="matrix(-0.01566318,0,0,0.00823529,-16.395594,23.633481)" />
    <linearGradient
       x1="302.85715"
       y1="366.64789"
       x2="302.85715"
       y2="609.50507"
       id="linearGradient3166"
       xlink:href="#linearGradient5048-7"
       gradientUnits="userSpaceOnUse"
       gradientTransform="matrix(0.04576928,0,0,0.00823529,-31.327484,23.633464)" />
    <radialGradient
       cx="11.789304"
       cy="15.03535"
       r="12.5"
       fx="11.789304"
       fy="15.03535"
       id="radialGradient3149-7"
       xlink:href="#linearGradient3242-7-3-8-0-4-58-06-2-9"
       gradientUnits="userSpaceOnUse"
       gradientTransform="matrix(0,2.9100034,-4.1330688,0,66.363061,-36.249087)" />
    <linearGradient
       id="linearGradient3242-7-3-8-0-4-58-06-2-9">
      <stop
         id="stop3244-5-8-5-6-4-3-8-7-0"
         style="stop-color:#cdf87e;stop-opacity:1"
         offset="0" />
      <stop
         id="stop3246-9-5-1-5-3-0-7-3-2"
         style="stop-color:#a2e34f;stop-opacity:1"
         offset="0.26238" />
      <stop
         id="stop3248-7-2-0-7-5-35-9-6-6"
         style="stop-color:#68b723;stop-opacity:1"
         offset="0.66093999" />
      <stop
         id="stop3250-8-2-8-5-6-40-4-0-8"
         style="stop-color:#1d7e0d;stop-opacity:1"
         offset="1" />
    </linearGradient>
    <radialGradient
       cx="11.789304"
       cy="15.03535"
       r="12.5"
       fx="11.789304"
       fy="15.03535"
       id="radialGradient3267"
       xlink:href="#linearGradient3242-7-3-8-0-4-58-06-2-9"
       gradientUnits="userSpaceOnUse"
       gradientTransform="matrix(0,2.9100034,-4.1330688,0,66.363061,-36.249087)" />
    <radialGradient
       cx="605.71429"
       cy="486.64789"
       r="117.14286"
       fx="605.71429"
       fy="486.64789"
       id="radialGradient3044"
       xlink:href="#linearGradient5060-5"
       gradientUnits="userSpaceOnUse"
       gradientTransform="matrix(-0.01472605,0,0,0.0095356,21.208141,18.688026)" />
    <linearGradient
       id="linearGradient5060-5">
      <stop
         id="stop5062-8"
         style="stop-color:#000000;stop-opacity:1"
         offset="0" />
      <stop
         id="stop5064-2"
         style="stop-color:#000000;stop-opacity:0"
         offset="1" />
    </linearGradient>
    <linearGradient
       id="linearGradient3412">
      <stop
         id="stop3414"
         style="stop-color:#fcfcfc;stop-opacity:1"
         offset="0" />
      <stop
         id="stop3416"
         style="stop-color:#cbcdd9;stop-opacity:1"
         offset="1" />
    </linearGradient>
    <linearGradient
       x1="33.876614"
       y1="19.948324"
       x2="44.118835"
       y2="30.190546"
       id="linearGradient3081"
       xlink:href="#linearGradient3412"
       gradientUnits="userSpaceOnUse"
       gradientTransform="matrix(0,0.61754391,-0.65185192,0,33.55926,-4.7561431)" />
  </defs>
  <rect
     width="17"
     height="1.9999981"
     x="3.5000005"
     y="21.999998"
     id="rect2879"
     style="opacity:0.15;fill:url(#linearGradient3080);fill-opacity:1;fill-rule:nonzero;stroke:none;stroke-width:1;marker:none;visibility:visible;display:inline;overflow:visible" />
  <path
     d="m 3.5,22.000086 c 0,0 0,1.999889 0,1.999889 C 2.8795275,24.00374 2,23.551901 2,22.999901 2,22.447902 2.6924,22.000086 3.5,22.000086 z"
     id="path2881"
     style="opacity:0.15;fill:url(#radialGradient3077);fill-opacity:1;fill-rule:nonzero;stroke:none;stroke-width:1;marker:none;visibility:visible;display:inline;overflow:visible" />
  <path
     d="m 20.5,22.000086 c 0,0 0,1.999889 0,1.999889 0.620472,0.0038 1.5,-0.448074 1.5,-1.000074 0,-0.551999 -0.692401,-0.999815 -1.5,-0.999815 z"
     id="path2883"
     style="opacity:0.15;fill:url(#radialGradient3074);fill-opacity:1;fill-rule:nonzero;stroke:none;stroke-width:1;marker:none;visibility:visible;display:inline;overflow:visible" />
  <path
     d="M 3.4999617,0.49996097 C 3.7677239,0.74618628 20.5,0.5 20.5,0.5 c 0.101695,0.0342417 3.9e-5,16.270881 3.9e-5,22.000039 -5.666693,0 -11.3333845,0 -17.0000773,0 0,-7.33336 0,-14.6667201 0,-22.00007803 z"
     id="path4160"
     style="fill:url(#linearGradient3069);fill-opacity:1;stroke:url(#linearGradient3071);stroke-width:0.99992162;stroke-linecap:butt;stroke-linejoin:round;stroke-miterlimit:4;stroke-opacity:1;stroke-dasharray:none;stroke-dashoffset:0;display:inline" />
  <path
     d="m 19.500001,0.99999996 c 0,5.20830534 0,15.29169304 0,20.50000004 -5,0 -10.0000001,0 -15.0000011,0 0,-6.66667 0,-13.3333343 0,-20.0000001 3.437261,0 11.5627381,0 15.0000001,0"
     id="path2435"
     style="opacity:0.6;fill:none;stroke:url(#linearGradient3063);stroke-width:0.99999988;stroke-linecap:butt;stroke-linejoin:miter;stroke-miterlimit:4;stroke-opacity:1;stroke-dasharray:none;stroke-dashoffset:0;display:inline" />
  <path
     d="M 9,3 9,6 18,6 18,3 9,3 z M 9,6 6,6 6,20 9,20 9,6 z"
     id="path6928"
     style="color:#000000;fill:url(#radialGradient3267);fill-opacity:1;fill-rule:nonzero;stroke:none;stroke-width:1;marker:none;visibility:visible;display:inline;overflow:visible;enable-background:accumulate" />
  <rect
     width="3"
     height="3"
     x="6.000001"
     y="2.9999993"
     id="rect3775"
     style="color:#000000;fill:#c4ec94;fill-opacity:1;fill-rule:nonzero;stroke:none;stroke-width:1;marker:none;visibility:visible;display:inline;overflow:visible;enable-background:accumulate" />
  <path
     d="m 12.5,4 0,15"
     id="path3595"
     style="color:#000000;fill:none;stroke:#305d2c;stroke-width:0.99999988;stroke-linecap:butt;stroke-linejoin:miter;stroke-miterlimit:4;stroke-opacity:0.3241762;stroke-dasharray:none;stroke-dashoffset:0;marker:none;visibility:visible;display:inline;overflow:visible;enable-background:accumulate" />
  <path
     d="m 16.999999,8.4999991 -9.9999983,0"
     id="path3607"
     style="color:#000000;fill:none;stroke:#305d2c;stroke-width:0.99999994;stroke-linecap:butt;stroke-linejoin:miter;stroke-miterlimit:4;stroke-opacity:0.3241762;stroke-dasharray:none;stroke-dashoffset:0;marker:none;visibility:visible;display:inline;overflow:visible;enable-background:accumulate" />
  <path
     d="m 16.999999,11.499999 -9.9999983,0"
     id="path3597"
     style="color:#000000;fill:none;stroke:#305d2c;stroke-width:0.99999994;stroke-linecap:butt;stroke-linejoin:miter;stroke-miterlimit:4;stroke-opacity:0.3241762;stroke-dasharray:none;stroke-dashoffset:0;marker:none;visibility:visible;display:inline;overflow:visible;enable-background:accumulate" />
  <path
     d="m 17.000001,14.499999 -10.0000017,0"
     id="path3609"
     style="color:#000000;fill:none;stroke:#305d2c;stroke-width:0.99999994;stroke-linecap:butt;stroke-linejoin:miter;stroke-miterlimit:4;stroke-opacity:0.3241762;stroke-dasharray:none;stroke-dashoffset:0;marker:none;visibility:visible;display:inline;overflow:visible;enable-background:accumulate" />
  <path
     d="m 16.999999,17.499999 -9.9999983,0"
     id="path3611"
     style="color:#000000;fill:none;stroke:#305d2c;stroke-width:0.99999994;stroke-linecap:butt;stroke-linejoin:miter;stroke-miterlimit:4;stroke-opacity:0.3241762;stroke-dasharray:none;stroke-dashoffset:0;marker:none;visibility:visible;display:inline;overflow:visible;enable-background:accumulate" />
  <path
     d="M 6.5,4.4999991 17.500001,4.4809603"
     id="path4743"
     style="opacity:0.2;fill:#ffffff;fill-rule:evenodd;stroke:#ffffff;stroke-width:1;stroke-linecap:square;stroke-linejoin:round;stroke-miterlimit:4;stroke-opacity:1;stroke-dasharray:none;display:inline" />
  <path
     d="m 6.5010805,3.50108 10.9978395,0 0,15.99784 -10.9978395,0 z M 8.5,3.5693946 8.5,19.5 m 9.00049,-14 -11.0009791,0"
     id="rect3580"
     style="opacity:0.4;color:#000000;fill:none;stroke:#0a3900;stroke-width:0.99999994;stroke-linecap:round;stroke-linejoin:miter;stroke-miterlimit:4;stroke-opacity:1;stroke-dashoffset:0;marker:none;visibility:visible;display:inline;overflow:visible;enable-background:accumulate" />
  <g
     id="g4198">
    <path
       d="m 12.333333,22.18431 c 0,0 0,2.315662 0,2.315662 C 11.574979,24.504372 10.5,23.981149 10.5,23.341991 c 0,-0.639157 0.846268,-1.157681 1.833333,-1.157681 z"
       id="path2883-5"
       style="opacity:0.15;fill:url(#radialGradient3044);fill-opacity:1;fill-rule:nonzero;stroke:none;stroke-width:1;marker:none;visibility:visible;display:inline;overflow:visible" />
    <path
       d="M 21.499999,13 10.5,23.5 21.499999,23.500474 z M 19.5,17.8 l 0,3.7 -3.9,0 z"
       id="path3410"
       style="opacity:0.8;fill:url(#linearGradient3081);fill-opacity:1;fill-rule:evenodd;stroke:#83899a;stroke-width:0.99999994px;stroke-linecap:butt;stroke-linejoin:miter;stroke-opacity:1" />
  </g>
</svg>

<svg xmlns="http://www.w3.org/2000/svg" xmlns:xlink="http://www.w3.org/1999/xlink" viewBox="0 0 24 24"><defs><linearGradient id="e"><stop offset="0" stop-opacity="0"/><stop offset=".5"/><stop offset="1" stop-opacity="0"/></linearGradient><linearGradient id="d"><stop offset="0"/><stop offset="1" stop-opacity="0"/></linearGradient><linearGradient id="c"><stop offset="0" stop-color="#aaa"/><stop offset="1" stop-color="#c8c8c8"/></linearGradient><linearGradient id="b"><stop offset="0" stop-color="#f4f4f4"/><stop offset="1" stop-color="#dbdbdb"/></linearGradient><linearGradient id="a"><stop offset="0" stop-color="#fff"/><stop offset="1" stop-color="#fff" stop-opacity="0"/></linearGradient><linearGradient x1="24" y1="2" x2="24" y2="46.017" id="n" xlink:href="#a" gradientUnits="userSpaceOnUse" gradientTransform="matrix(.45454 0 0 .46512 1.09 .337)"/><linearGradient x1="25.132" y1=".985" x2="25.132" y2="47.013" id="l" xlink:href="#b" gradientUnits="userSpaceOnUse" gradientTransform="matrix(.48572 0 0 .47803 .343 -.706)"/><linearGradient x1="-51.786" y1="50.786" x2="-51.786" y2="2.906" id="m" xlink:href="#c" gradientUnits="userSpaceOnUse" gradientTransform="matrix(.3922 0 0 .44736 29.2 -1.24)"/><radialGradient cx="605.714" cy="486.648" r="117.143" fx="605.714" fy="486.648" id="k" xlink:href="#d" gradientUnits="userSpaceOnUse" gradientTransform="matrix(.01205 0 0 .00824 13.24 18.98)"/><radialGradient cx="605.714" cy="486.648" r="117.143" fx="605.714" fy="486.648" id="j" xlink:href="#d" gradientUnits="userSpaceOnUse" gradientTransform="matrix(-.01205 0 0 .00824 10.76 18.98)"/><linearGradient x1="302.857" y1="366.648" x2="302.857" y2="609.505" id="i" xlink:href="#e" gradientUnits="userSpaceOnUse" gradientTransform="matrix(.0352 0 0 .00824 -.725 18.98)"/><linearGradient id="f"><stop offset="0" stop-color="#cdf87e"/><stop offset=".262" stop-color="#a2e34f"/><stop offset=".661" stop-color="#68b723"/><stop offset="1" stop-color="#1d7e0d"/></linearGradient><radialGradient cx="11.789" cy="15.035" r="12.5" fx="11.789" fy="15.035" id="o" xlink:href="#f" gradientUnits="userSpaceOnUse" gradientTransform="matrix(0 2.91 -4.13307 0 66.363 -36.25)"/><radialGradient cx="605.714" cy="486.648" r="117.143" fx="605.714" fy="486.648" id="p" xlink:href="#g" gradientUnits="userSpaceOnUse" gradientTransform="matrix(-.01473 0 0 .00954 21.208 18.688)"/><linearGradient id="g"><stop offset="0"/><stop offset="1" stop-opacity="0"/></linearGradient><linearGradient id="h"><stop offset="0" stop-color="#fcfcfc"/><stop offset="1" stop-color="#cbcdd9"/></linearGradient><linearGradient x1="33.877" y1="19.948" x2="44.119" y2="30.191" id="q" xlink:href="#h" gradientUnits="userSpaceOnUse" gradientTransform="matrix(0 .61754 -.65185 0 33.56 -4.756)"/></defs><path opacity=".15" fill="url(#i)" overflow="visible" d="M3.5 22h17v2h-17z"/><path d="M3.5 22v2c-.62.004-1.5-.448-1.5-1s.692-1 1.5-1z" opacity=".15" fill="url(#j)" overflow="visible"/><path d="M20.5 22v2c.62.004 1.5-.448 1.5-1s-.692-1-1.5-1z" opacity=".15" fill="url(#k)" overflow="visible"/><path d="M3.5.5c.268.246 17 0 17 0 .102.034 0 16.27 0 22h-17V.5z" fill="url(#l)" stroke="url(#m)" stroke-linejoin="round"/><path d="M19.5 1v20.5h-15v-20h15" opacity=".6" fill="none" stroke="url(#n)"/><path d="M9 3v3h9V3H9zm0 3H6v14h3V6z" color="#000" fill="url(#o)" overflow="visible"/><path color="#000" fill="#c4ec94" overflow="visible" d="M6 3h3v3H6z"/><path d="M12.5 4v15M17 8.5H7m10 3H7m10 3H7m10 3H7" color="#000" fill="none" stroke="#305d2c" stroke-opacity=".324" overflow="visible"/><path d="M6.5 4.5l11-.02" opacity=".2" fill="#fff" fill-rule="evenodd" stroke="#fff" stroke-linecap="square" stroke-linejoin="round"/><path d="M6.5 3.5h11v16h-11zm2 .07V19.5m9-14h-11" opacity=".4" color="#000" fill="none" stroke="#0a3900" stroke-linecap="round" overflow="visible"/><path d="M12.333 22.184V24.5c-.758.004-1.833-.52-1.833-1.158 0-.64.846-1.158 1.833-1.158z" opacity=".15" fill="url(#p)" overflow="visible"/><path d="M21.5 13l-11 10.5h11zm-2 4.8v3.7h-3.9z" opacity=".8" fill="url(#q)" fill-rule="evenodd" stroke="#83899a"/></svg>
